X:1
T:Title
%%score { ( 1 4 ) | ( 2 3 ) }
L:1/8
Q:1/4=100
M:6/8
K:D
V:1 treble nm="Grand Piano"
V:4 treble 
V:2 bass 
V:3 bass 
V:1
 [FA]3 FED | E3 .D3 | B3 dcB | [FA]6 | [EG]3 [DF][CE][B,^D] | E3 .A3 | [^GB]3 [GB][GB][GB] | %7
w: Elisha~A.~Hoffman * * *|||||||
 [Ac]6 | [Fd]3 FGA | B3 B3 |[M:3/8] [^Ge]3 | [GB][Gc][Gd] |[M:3/4] [Gc]6 | [DFd]3 [DF] [DEG][DFA] | %14
w: |||||||
 [DGB]3 [B,DG]2 [B,DG] | [DF]2 [DF] [A,CF]2[K:bass] [G,A,E] | [F,A,D]6 | z2 z .[FA]3 | F6 | %19
w: |||||
 [Fd]2 [Fd] [Fd]2 [Ac] | [GB]6 | [CEG]2 [CEG] [CEG]2 [DF] | [CE]2 [CE] [CE]2 [CA] | c2 d c2 B | %24
w: |||||
 A6 | [Fd]3 F GA | B3 B3 |[M:3/8] [^Ge]3 | [GB][Gc][Gd] |[M:3/4] [Gc]6 | [DFd]3 [DF] [EG][FA] | %31
w: |||||||
 B3 G2 G | F2 F [CF]2 E |[M:7/4] D6 z2 z2 z4 |] %34
w: |||
V:2
 [D,D]3 [D,A,D][D,G,A,][D,F,A,] | [A,,G,A,]3 .[D,F,A,]3 | [G,D]3 [G,B,G][G,CG][G,DG] | [D,D]6 | %4
 [A,,A,]3 [A,,A,][A,,A,][A,,A,] | [A,C]3 .[A,CE]3 | [E,E]3 [E,E][E,E][E,E] | [A,E]6 | %8
 [D,D]3 [D,A,D][D,A,D][F,D] | [G,D]3 [G,DG]3 |[M:3/8][K:bass] [E,D]3 | [E,D][E,C][E,B,] | %12
[M:3/4] z2 z E3 | D,3 D, D,D, | G,3 G,2 G, | A,2 A, A,,2 A,, | D,6 | D,2 D,A,, A,,A,, | %18
 D,2 D, D,3 | [D,A,]2 [D,A,] [D,A,]2 [F,D] | [G,D]2 G, G,3 | A,,2 A,, A,,2 A,, | %22
 [A,,A,]2 [A,,A,] [A,,A,]2 [A,,A,] | [E,A,E]2 [E,B,E] [E,A,E]2 [E,^G,D] | [A,C]6 | %25
 [D,D]3 [D,A,D] [E,A,D][F,D] | [G,D]3 [G,DG]3 |[M:3/8][K:bass] [E,D]3 | [E,D][E,C][E,B,] | %29
[M:3/4] z2 z E3 | D,3 D, [D,D][D,D] | [G,DG]3 [G,B,D]2 [G,B,D] | %32
 [A,D]2 [A,D][K:bass] [A,,A,]2 [A,,G,A,] |[M:7/4] [D,F,A,]6 z2 z2 z4 |] %34
V:3
 x6 | x6 | x6 | x6 | x6 | x6 | x6 | x6 | x6 | x6 |[M:3/8][K:bass] x3 | x3 |[M:3/4] A,6 | x6 | x6 | %15
 x6 | x6 | x6 | x6 | x6 | x6 | x6 | x6 | x6 | x6 | x6 | x6 |[M:3/8][K:bass] x3 | x3 |[M:3/4] A,6 | %30
 x6 | x6 | x3[K:bass] x3 |[M:7/4] x14 |] %34
V:4
 x6 | x6 | x6 | x6 | x6 | x6 | x6 | x6 | x6 | x6 |[M:3/8] x3 | x3 |[M:3/4] x6 | x6 | x6 | %15
 x5[K:bass] x | x6 | [DFA]2 [DFA]C C[CEG] | D2 A, A,3 | x6 | z2 D D3 | x6 | x6 | x6 | x6 | x6 | %26
 x6 |[M:3/8] x3 | x3 |[M:3/4] x6 | x6 | x6 | x6 |[M:7/4] x14 |] %34

